!!!SOCIAL_FUNCTION:	songs of the hand-game
!!!PDT:	1936
!!!OTL: No_43_Going_Toward_That_Paint.krn
!!!REG: Oklahoma and Montana
!!!LANG: Tone
!!!LING_GROUP: Algonquin
**kern
*staff1
=1-
*clefF4
*k[b-e-]
*M7/8
2r
4r
16r
16e-\
=2
4.d\
8d\L
16.c\L
32d\JJk
12d\L
12c\
12c\J
=3
*M2/4
16d^\LK
8.B-\J
16F^\LK
8D\
16c\Jk
=4
4B-\
8B-\L
8B-\J
=5
*M5/8
4.B-\
8.r
16e-\
=6
*M7/8
4.d\
8d\L
16.c\L
32d\JJk
12d\L
12c\
12c\J
=7
*M2/4
16d^\LK
8.B-\J
16F^\LK
8D\
16c\Jk
=8
*M3/4
4B-\
16d\LK
8.G\J
8F\
16r
16G\
=9
4G\
8G\L
16G\Jk
16r
8.r
16c\
=10
12B-\L
12B-\
12B-\J
8B-\L
8B-\J
16G\LK
8D\
16G\Jk
=11
4G\
8G\L
8F\J
8.D\L
16E-\Jk
=12
*M2/4
4..D\
16E-\
=13
*M3/4
4D\
4D\
8.r
16B-\
=14
*M2/4
8G\L
8B-\J
4B-\
=15
8G\L
8B-\J
8B-\L
8c\J
=16
*M3/4
8B-\L
8B-\J
8B-\L
8B-\J
8B-\
16r
16d\
=17
*M2/4
8c\L
8c\J
8c\L
8e-\J
=18
8c\L
8c\J
8B-\L
8G\J
=19
8r
8d\
8.c\L
16B-\Jk
=20
*M3/4
4G\
8G\L
16G\Jk
16r
8.r
16c\
=21
12B-\L
12B-\
12B-\J
8B-\L
8B-\J
16G\LL
16D\JJ
16r
16G\
=22
4G\
8G\L
8F\J
8.D\L
16E-\Jk
=23
*M2/4
4.D\
8D\
=24
4D\
8D\
8r
==
*-
